X:1
T:xyz
%%score 1 2 3
L:1/8
Q:1/4=50
M:3/4
K:F
V:1 treble nm="Cello 1" snm=" Vc. 1"
V:2 tenor nm="Cello 2" snm="Vc. 2"
V:3 bass nm="Cello 3" snm="Vc. 3"
V:1
 z2!p! A4- | A2 A4- | A2 A4- |[M:4/4] A4 z2[K:bass]"^passionato"!mf! uA,,2 | %4
 ((A,D,)(A,D,)) (B,A,)(F,A,,) | (F,G,,)(F,G,) A,4 | ((vA,D,)((A,D,))) (CB,)(A,G,) | %7
 ((C,B,,))((E,G,)) ((B,A,))((G,F,)) | ((G,B,,))((G,B,,)) (((A,G,))((F,G,))) | A,6 A,,2 | %10
 (G,B,,)(G,B,,) (A,G,)(F,E,) | D,4 E,4 | (F,G,,)(F,G,,) (A,G,)(F,E,) | D,4- D,2 A,2 | %14
 ((AD)(AD)) (BA)(FA,) | (FG,)((FG)) A2- A2 | (AD)((AD)) (cB)(AG) | ((CB,))((EG)) ((BA))((GF)) | %18
 ((GB,))((GB,)) ((AG))((FG)) | A4- A2 A,2 | (GB,)(GB,) ((AG))(FE) | D4 E4 | (FG,)(FG,) (AG)(FE) | %23
 D2- D6 | z4 (uB,,2- B,,A,,/G,,/) | (D,2 G,,2) (A,,>G,,) A,,/D,/F,/A,/ | %26
 D4- D/G/E/D/ B,/G,/E,/D,/ | B,,2 (G,G,,) (G,>F,) E,E- | EE/D/ FE (=B,>C) D2- | %29
 D(C/D/) =B,A,/^G,/ B, A,3 | z uE/D/ GF (=B,>C) D2 | %31
[M:5/4] z3/2 (vD,,/ E,,/F,,)(F,,/ G,,/!<(!A,,)(=B,,/"^rit." C,/)^D,/^F,,/B,,/ D,/^F,/=B,/^D/!<)! | %32
[K:C][M:4/4]!mf! (EA,)(EA,) (FE)(CE,) | (CD,)(CD) E4 | (EA,)(EA,) (GF)(ED) | (G,F,)(B,D) (FE)(DC) | %36
 (DF,)(DF,) (ED)(CD) | E2- E/4(C/4B,/4A,/4E,/4C,/4B,,/4A,,/4) E,,3 C | (DF,)(DF,) (ED)(CB,) | %39
 A,A,, (C,/E,/)F,/A,/ B,4 | (CD,)(CD,) (ED)(CB,) | A,3 B,, C,/E,/A,/C/ E,/A,/C/D/ | %42
 (EA,)(EA,) (FE)(CE,) | (GF)(ED) (CD)(B,C) | %44
[M:2/4] (G/4F/4E/4D/4C/4B,/4A,/4G,/4) (F,/4E,/4D,/4C,/4B,,/4A,,/4) z/ |[M:4/4] vD,C,B,,F, DCB,D, | %46
 vFEDB[K:treble]"^dim.""^rit." dFE^G | A8- | A6 z2 |] %49
V:2
!p! (uED) F2 E2 | (C=B,) (D3 C) | =B,D C2 B,2 |[M:4/4] D4 ^C4 | F4 F4 | (D3 E) (F2 E2) | F4 D4 | %7
 C4 (F2 (EF)) | D4 E4 | F4 F4 | D4 (D2 ^C2) | B,4 (D2 ^C2) | D4 (D2 ^C2) | A,(G,/B,/) A,4 z2 | %14
 F4 F4 | (D3 E) (F2 E2) | vF4 D4 | E4 F2- (EF) | D4 E4 | F4 F4 | D4 (D2 ^C2) | D4 (D2 ^C2) | %22
 D4 (D2 E2) | A,(G,/B,/) A,4 z2 |[K:bass]!mf! z uA,/G,/ B,A, (E,>F,) G,2- | %25
 G,(F,/G,/) E,D,/^C,/ E, D,3 | z (uA,/G,/) CB, (E,>F,) G,2 | G(G,/A,/) B,(B,/C/) D(E/F/) G2 | %28
 A4 (D/C/D/A,/ =B,/A,/B,/D,/) | (D/C/D/=B,/ D/C/D/E,/) (C/B,/C/E,/ C/B,/C/E,/) | %30
 D,/C,/C =B,/D,/F, (uF,>E,) D,/C,/=B,,/A,,/ |[M:5/4] F,4 A,2"^rit." _E,4 | %32
[K:C][M:4/4] C2 A,2 C2 E,2 | (A,3 B,) (C2 B,2) | C4 A,4 | G,4 (C2 (B,C)) | B, D,3 E,2 (^G,E,) | %37
 A,4 C4 | B,4 (A,2 ^G,2) | E,4 F,4 | A,4 (B,2 ^G,2) | E,4 E,4 | A,4 (C2 A,2) | D,4 F,4 | %44
[M:2/4] A,2 A,2 |[M:4/4] vF,4 D,4 | (vA,2 _A,2)"^dim.""^rit." (A,2 ^G,2) | C8- | [E,C]6 z2 |] %49
V:3
!p! (uE,D,) F,2 E,2 | (C,=B,,) (D,3 C,) | =B,,D, C,2 B,,2 |[M:4/4] [A,,E,]8 | D,2 F,2 D,2 A,,2 | %5
 B,,2 G,,2 C,2 ^C,2 | D,2 F,2 B,,2 G,,2 | E,2 G,2 F,2 A,,2 | B,,2 G,,2 D,2 ^C,2 | %9
 (E,2 D,2) (E,2 D,2) | B,,2 G,,2 E,2 A,,2 | F,,4 G,,3 A,, | B,,4 G,,2 A,,2 | F,,4 D,2 ^C,2 | %14
 (D,2 F,2) (D,2 A,,2) | (B,,2 G,,2) (C,2 ^C,2) | (vD,2 F,2) (B,,2 G,,2) | (E,2 G,2) (F,2 A,,2) | %18
 (B,,2 G,,2) (D,2 ^C,2) | (E,2 D,2) (E,2 D,2) | (B,,2 G,,2) (E,2 A,,2) | F,,4 (G,,3 A,,) | %22
 B,,4 (G,,2 A,,2) | (D,2 ^C,2) D,4 | G, G,2 (G, G,) G,2 (G, | G,) G,2 (G, F,) F,2 z | A,,4 B,,4 | %27
 D,G,, G,D, D,G, B,2 |"^pizz." A,,E,CE, A,,F,DF, | A,,F,DF, A,,E,CE, | A,,E, =B,,2 ^G,,4 | %31
[M:5/4]"^arco" D,,4 =B,,2"^rit." B,,2 =B,2 |[K:C][M:4/4] A,,2 C,2 A,,4 | D,,2 A,,2 ^G,,2 E,,2 | %34
 A,,2 E,2 C,2 A,,2 | G,,2 B,,2 C,2 A,,2 | B,,4 (^G,,2 B,,2) | C,B,,A,,B,, C,2 A,,2 | %38
 D,2 B,,2 E,2 B,,2 | z A,,F,D D B,3 | C,2 F,2 D,2 E,2 | A,,2 (C,2 C,2) A,,2 | C,2 A,,2 E,2 A,,2 | %43
 G,2 A,,2 D,2 A,,2 |[M:2/4] F, C, F, D, |[M:4/4] v^G,,2 B,,2 E,,2 G,,2 | vC,2 D,2"^rit." F,2 E,2 | %47
 A,,2 E,2 A,2 C2 | A,,6 z2 |] %49

